brandFactory_export/2.Regular/Dolar_Dinero_Moneda_2Regular.svg

<?xml version="1.0" encoding="UTF-8"?>
<svg width="24px" height="24px" viewBox="0 0 24 24" version="1.1" xmlns="http://www.w3.org/2000/svg" xmlns:xlink="http://www.w3.org/1999/xlink">
    <title>2.Regular/Dolar_Dinero_Moneda_2Regular</title>
    <g id="Symbols" stroke="none" stroke-width="1" fill="none" fill-rule="evenodd">
        <g id="2.Regular/Dolar_Dinero_Moneda_2Regular" fill="#5CB615" fill-rule="nonzero">
            <path d="M15.3680672,18.1445378 C14.8268908,18.712605 14.1546218,19.0487395 13.4319328,19.2302521 L13.4319328,13.0487395 C13.9394958,13.1428571 14.4235294,13.2571429 14.8403361,13.4588235 C15.8453782,13.9428571 16.1815126,14.7428571 16.2857143,15.3310924 C16.4504202,16.302521 16.1008403,17.3781513 15.3680672,18.1445378 M9.20672269,9.37142857 C8.60504202,8.72605042 8.54453782,7.96638655 8.60504202,7.44201681 C8.71596639,6.44033613 9.32773109,5.42857143 10.1647059,4.8605042 C10.4806723,4.6487395 10.8201681,4.50756303 11.1663866,4.39663866 L11.1663866,10.3260504 C10.3932773,10.1647059 9.71092437,9.91596639 9.20672269,9.37142857 M15.794958,11.3378151 C15.0285714,10.9714286 14.2285714,10.7966387 13.4319328,10.6756303 L13.4319328,4.28571429 C14.4168067,4.47058824 15.3512605,4.91428571 16.0470588,5.49579832 C16.5142857,5.89243697 17.2134454,5.83529412 17.6067227,5.36806723 C17.6168067,5.35462185 17.6302521,5.34117647 17.6403361,5.32773109 C18.0369748,4.82352941 17.9630252,4.10084034 17.4789916,3.68403361 C16.3193277,2.72941176 14.9176471,2.11428571 13.4319328,1.9092437 L13.4319328,1.1697479 C13.4420168,0.534453782 12.9344538,0.0100840336 12.2991597,0 C11.6638655,0.0100840336 11.1563025,0.534453782 11.1663866,1.1697479 L11.1663866,1.97647059 C10.3630252,2.13109244 9.6,2.44369748 8.9210084,2.90420168 C7.49243697,3.89579832 6.55798319,5.45210084 6.35294118,7.17983193 C6.19495798,8.62521008 6.62857143,9.97983193 7.57310924,10.994958 C8.61176471,12.1109244 9.9092437,12.5042017 11.1697479,12.7226891 L11.1697479,19.297479 C9.95294118,19.0957983 8.79663866,18.6151261 7.79159664,17.8991597 C7.29411765,17.5394958 6.59831933,17.6537815 6.23865546,18.1512605 C6.22857143,18.1647059 6.22184874,18.1747899 6.21176471,18.1882353 C5.85210084,18.7193277 5.97647059,19.4386555 6.4907563,19.8184874 C7.87226891,20.810084 9.4789916,21.4420168 11.1630252,21.6605042 L11.1630252,22.4201681 C11.1630252,23.0655462 11.6705882,23.589916 12.2957983,23.589916 C12.9210084,23.589916 13.4285714,23.0655462 13.4285714,22.4201681 L13.4285714,21.6403361 C14.7831933,21.4285714 16.0268908,20.7798319 16.9747899,19.7915966 C18.2386555,18.4705882 18.810084,16.6487395 18.507563,14.9176471 C18.2453782,13.3512605 17.2302521,12.0134454 15.794958,11.3378151" id="Dolar_Dinero_Moneda_2Regular"></path>
        </g>
    </g>
</svg>

<svg width="24" height="24" viewBox="0 0 24 24" xmlns="http://www.w3.org/2000/svg"><path d="M15.368 18.145c-.541.568-1.213.904-1.936 1.085V13.05c.507.094.992.208 1.408.41 1.005.484 1.342 1.284 1.446 1.872.164.972-.185 2.047-.918 2.814M9.207 9.37c-.602-.645-.662-1.405-.602-1.929.111-1.002.723-2.013 1.56-2.581a3.917 3.917 0 011.001-.464v5.93c-.773-.162-1.455-.411-1.96-.956m6.589 1.967c-.766-.367-1.566-.541-2.363-.662v-6.39c.985.185 1.92.628 2.615 1.21.467.396 1.166.34 1.56-.128l.033-.04a1.193 1.193 0 00-.161-1.644 8.117 8.117 0 00-4.047-1.775v-.74A1.152 1.152 0 0012.299 0a1.152 1.152 0 00-1.133 1.17v.806a6.02 6.02 0 00-2.245.928A6.075 6.075 0 006.353 7.18c-.158 1.445.276 2.8 1.22 3.815 1.039 1.116 2.336 1.51 3.597 1.728v6.574A8.116 8.116 0 017.792 17.9a1.113 1.113 0 00-1.553.252l-.027.037c-.36.531-.236 1.25.279 1.63a10.283 10.283 0 004.672 1.843v.76c0 .645.508 1.169 1.133 1.169s1.133-.524 1.133-1.17v-.78a6.246 6.246 0 003.546-1.848c1.264-1.321 1.835-3.143 1.533-4.874a4.841 4.841 0 00-2.713-3.58" fill="#5CB615" fill-rule="nonzero"/></svg>
